icons/lines/receipt-discount.svg

<svg xmlns="http://www.w3.org/2000/svg" width="24" height="24" viewBox="0 0 24 24" fill="none" stroke="currentColor" stroke-width="2" stroke-linecap="round" stroke-linejoin="round">
  <path d="M11.925 13.5h.01" />
  <path d="M16 4a2 2 0 0 1 2-2H6C3 2 2 3.79 2 6v15a1 1 0 0 0 1.6.8l1.71-1.28a1 1 0 0 1 1.32.1l1.66 1.67a1 1 0 0 0 1.42 0l1.68-1.68a1 1 0 0 1 1.3-.09l1.71 1.28A1 1 0 0 0 16 21za2 2 0 0 1 2.02-2A4 4 0 0 1 22 6v2.42C22 10 21 11 19.42 11H16" />
  <path d="M6.195 8.5h.01" />
  <path d="m6.27 13.73 5.46-5.46" />
</svg>

<svg xmlns="http://www.w3.org/2000/svg" width="24" height="24" viewBox="0 0 24 24" fill="none" stroke="currentColor" stroke-width="2" stroke-linecap="round" stroke-linejoin="round" >
  <path d="M22 6V8.42C22 10 21 11 19.42 11H16V4.01C16 2.9 16.91 2 18.02 2C19.11 2.01 20.11 2.45 20.83 3.17C21.55 3.9 22 4.9 22 6Z" stroke-miterlimit="10"/>
  <path d="M2 7V21C2 21.83 2.94 22.3 3.6 21.8L5.31 20.52C5.71 20.22 6.27 20.26 6.63 20.62L8.29 22.29C8.68 22.68 9.32 22.68 9.71 22.29L11.39 20.61C11.74 20.26 12.3 20.22 12.69 20.52L14.4 21.8C15.06 22.29 16 21.82 16 21V4C16 2.9 16.9 2 18 2H7H6C3 2 2 3.79 2 6V7Z" stroke-miterlimit="10"/>
  <path d="M6.27002 13.73L11.73 8.27002"/>
  <path d="M11.9247 13.5H11.9337"/>
  <path d="M6.1947 8.5H6.20368"/>
  </svg>
